; generated by Slic3r 1.2.9 on 2017-01-07 at 12:49:05

; external perimeters extrusion width = 0.50mm
; perimeters extrusion width = 0.58mm
; infill extrusion width = 0.58mm
; solid infill extrusion width = 0.58mm
; top infill extrusion width = 0.58mm

M107
M190 S105 ; set bed temperature
M104 S245 ; set temperature
G28 ; home all axes
G1 Z5 F5000 ; lift nozzle

M109 S245 ; wait for temperature to be reached
G21 ; set units to millimeters
G90 ; use absolute coordinates
M82 ; use absolute distances for extrusion
G92 E0
G1 Z0.500 F7800.000
G1 E-2.00000 F2400.00000
G92 E0
G1 X88.821 Y88.822 F7800.000
G1 E2.00000 F2400.00000
G1 X89.365 Y88.277 E2.14287 F1800.000
G1 X90.286 Y87.505 E2.36582
G1 X91.562 Y86.611 E2.65504
G1 X92.603 Y86.010 E2.87799
G1 X94.015 Y85.352 E3.16720
G1 X95.144 Y84.941 E3.39016
G1 X96.650 Y84.537 E3.67936
G1 X97.833 Y84.329 E3.90232
G1 X99.385 Y84.193 E4.19154
G1 X100.587 Y84.193 E4.41449
G1 X102.139 Y84.329 E4.70369 F1800.000
G1 X103.323 Y84.537 E4.92665
G1 X104.828 Y84.941 E5.21587
G1 X105.957 Y85.352 E5.43882
G1 X107.369 Y86.010 E5.72803
G1 X108.410 Y86.611 E5.95098
G1 X109.687 Y87.505 E6.24020
G1 X110.607 Y88.277 E6.46315
G1 X111.709 Y89.379 E6.75236
G1 X112.481 Y90.300 E6.97532
G1 X113.375 Y91.576 E7.26453
G1 X113.976 Y92.617 E7.48748
G1 X114.635 Y94.029 E7.77669
G1 X115.046 Y95.158 E7.99965
G1 X115.449 Y96.664 E8.28886
G1 X115.658 Y97.847 E8.51181
G1 X115.793 Y99.399 E8.80102
G1 X115.793 Y100.601 E9.02398
G1 X115.658 Y102.153 E9.31319
G1 X115.449 Y103.336 E9.53614
G1 X115.046 Y104.842 E9.82535
G1 X114.635 Y105.971 E10.04831
G1 X113.976 Y107.383 E10.33752
G1 X113.375 Y108.424 E10.56047
G1 X112.481 Y109.700 E10.84968
G1 X111.709 Y110.621 E11.07264
G1 X110.607 Y111.723 E11.36185
G1 X109.687 Y112.495 E11.58481
G1 X108.410 Y113.389 E11.87402
G1 X107.369 Y113.990 E12.09697
G1 X105.957 Y114.648 E12.38618
G1 X104.828 Y115.059 E12.60915
G1 X103.323 Y115.463 E12.89835
G1 X102.139 Y115.671 E13.12130
G1 X100.587 Y115.807 E13.41051
G1 X99.385 Y115.807 E13.63347
G1 X97.833 Y115.671 E13.92268
G1 X96.650 Y115.463 E14.14563
G1 X95.144 Y115.059 E14.43484
G1 X94.015 Y114.648 E14.65780
G1 X92.603 Y113.990 E14.94701
G1 X91.562 Y113.389 E15.16996
G1 X90.286 Y112.495 E15.45917
G1 X89.365 Y111.723 E15.68213
G1 X88.263 Y110.621 E15.97134
G1 X87.491 Y109.701 E16.19430
G1 X86.597 Y108.424 E16.48351
G1 X85.996 Y107.383 E16.70646
G1 X85.338 Y105.971 E16.99567
G1 X84.927 Y104.842 E17.21863
G1 X84.523 Y103.337 E17.50784
G1 X84.315 Y102.153 E17.73080
G1 X84.179 Y100.601 E18.02001
G1 X84.179 Y99.399 E18.24296
G1 X84.315 Y97.847 E18.53217
G1 X84.523 Y96.664 E18.75513
G1 X84.927 Y95.158 E19.04433
G1 X85.338 Y94.029 E19.26730
G1 X85.996 Y92.617 E19.55650
G1 X86.597 Y91.576 E19.77946
G1 X87.491 Y90.300 E20.06866
G1 X88.263 Y89.379 E20.29162
G1 X88.768 Y88.875 E20.42404
G1 E18.42404 F2400.00000
G92 E0
G1 X105.209 Y105.350 F7800.000
G1 E2.00000 F2400.00000
G1 X104.822 Y105.739 E2.10180 F1800.000
G1 X103.731 Y106.504 E2.34906
G1 X102.547 Y107.055 E2.59134
G1 X101.286 Y107.392 E2.83352
G1 X99.986 Y107.505 E3.07571
G1 X98.685 Y107.392 E3.31803
G1 X97.400 Y107.044 E3.56516
G1 X96.242 Y106.504 E3.80227
G1 X95.172 Y105.757 E4.04440
G1 X94.247 Y104.836 E4.28663
G1 X93.482 Y103.745 E4.53390
G1 X92.932 Y102.561 E4.77617
G1 X92.594 Y101.300 E5.01836
G1 X92.481 Y100.000 E5.26054
G1 X92.594 Y98.700 E5.50273
G1 X92.932 Y97.439 E5.74491
G1 X93.482 Y96.255 E5.98719
G1 X94.247 Y95.164 E6.23445
G1 X95.172 Y94.243 E6.47669
G1 X96.242 Y93.496 E6.71886
G1 X97.425 Y92.945 E6.96104
G1 X98.686 Y92.608 E7.20322
G1 X99.959 Y92.497 E7.44029 F1800.000
G1 X101.285 Y92.608 E7.68737
G1 X102.547 Y92.945 E7.92972
G1 X103.731 Y93.496 E8.17200
G1 X104.822 Y94.261 E8.41926
G1 X105.743 Y95.186 E8.66149
G1 X106.490 Y96.256 E8.90362
G1 X107.030 Y97.414 E9.14073
G1 X107.378 Y98.699 E9.38786
G1 X107.491 Y100.000 E9.63018
G1 X107.378 Y101.301 E9.87250
G1 X107.030 Y102.586 E10.11963
G1 X106.490 Y103.744 E10.35674
G1 X105.743 Y104.814 E10.59887
G1 X105.262 Y105.297 E10.72539
G1 X105.339 Y105.833 F7800.000
G1 X105.867 Y106.008 F7800.000
G1 X105.411 Y106.465 E10.84515 F1800.000
G1 X104.206 Y107.308 E11.11812
G1 X102.872 Y107.930 E11.39109
G1 X101.452 Y108.311 E11.66407
G1 X99.986 Y108.439 E11.93704
G1 X98.521 Y108.311 E12.21001
G1 X97.100 Y107.930 E12.48298
G1 X95.767 Y107.308 E12.75595
G1 X94.562 Y106.465 E13.02892
G1 X93.522 Y105.424 E13.30190
G1 X93.200 Y104.965 E13.40602
G1 X92.678 Y104.219 E13.57487
G1 X92.056 Y102.886 E13.84784
G1 X91.675 Y101.465 E14.12081
G1 X91.547 Y100.000 E14.39378
G1 X91.675 Y98.535 E14.66675
G1 X92.056 Y97.114 E14.93972
G1 X92.678 Y95.781 E15.21270
G1 X93.522 Y94.576 E15.48567
G1 X94.562 Y93.535 E15.75864
G1 X95.767 Y92.692 E16.03161
G1 X97.100 Y92.070 E16.30458
G1 X98.521 Y91.689 E16.57755
G1 X99.986 Y91.561 E16.85053
G1 X100.500 Y91.606 E16.94617
G1 X101.452 Y91.689 E17.12350 F1800.000
G1 X102.872 Y92.070 E17.39647
G1 X104.206 Y92.692 E17.66944
G1 X105.411 Y93.535 E17.94241
G1 X106.451 Y94.576 E18.21538
G1 X107.294 Y95.781 E18.48836
G1 X107.916 Y97.114 E18.76133
G1 X108.297 Y98.535 E19.03430
G1 X108.425 Y100.000 E19.30727
G1 X108.297 Y101.465 E19.58024
G1 X107.916 Y102.886 E19.85321
G1 X107.294 Y104.219 E20.12618
G1 X106.451 Y105.424 E20.39916
G1 X105.920 Y105.955 E20.53845
G1 X105.384 Y105.879 F7800.000
M104 S240 ; set temperature
M140 S100 ; wait for bed temperature to be reached
G1 Z0.900 F7800.000
G1 X105.350 Y105.496 F7800.000
G1 X104.974 Y105.875 E20.58207 F3600.000
G1 X103.818 Y106.688 E20.69735
G1 X102.605 Y107.249 E20.80646
G1 X101.316 Y107.593 E20.91541
G1 X99.986 Y107.708 E21.02436
G1 X98.654 Y107.593 E21.13353
G1 X97.294 Y107.219 E21.24860
G1 X96.155 Y106.688 E21.35123
G1 X95.060 Y105.927 E21.46009
G1 X94.111 Y104.987 E21.56914
G1 X93.298 Y103.832 E21.68443
G1 X92.737 Y102.619 E21.79354
G1 X92.393 Y101.330 E21.90248
G1 X92.278 Y100.000 E22.01143
G1 X92.393 Y98.670 E22.12038
G1 X92.737 Y97.381 E22.22933
G1 X93.298 Y96.168 E22.33844
G1 X94.111 Y95.013 E22.45373
G1 X95.060 Y94.073 E22.56277
G1 X96.156 Y93.311 E22.67171
G1 X97.367 Y92.751 E22.78065
G1 X98.656 Y92.407 E22.88959
G1 X99.908 Y92.298 E22.99216 F3600.000
G1 X101.312 Y92.406 E23.10715
G1 X102.605 Y92.751 E23.21637
G1 X103.818 Y93.312 E23.32548
G1 X104.974 Y94.125 E23.44077
G1 X105.914 Y95.074 E23.54981
G1 X106.674 Y96.169 E23.65867
G1 X107.206 Y97.308 E23.76130
G1 X107.579 Y98.668 E23.87638
G1 X107.695 Y100.000 E23.98555
G1 X107.579 Y101.332 E24.09472
G1 X107.206 Y102.692 E24.20979
G1 X106.674 Y103.831 E24.31242
G1 X105.914 Y104.926 E24.42128
G1 X105.402 Y105.443 E24.48059
G1 X105.028 Y105.177 F7800.000
G1 X104.680 Y105.528 E24.51462 F1800.000
G1 X103.591 Y106.294 E24.60631
G1 X102.451 Y106.822 E24.69286
G1 X101.237 Y107.145 E24.77936
G1 X99.986 Y107.254 E24.86587
G1 X98.734 Y107.145 E24.95243
G1 X97.451 Y106.793 E25.04406
G1 X96.381 Y106.294 E25.12535
G1 X95.350 Y105.578 E25.21182
G1 X94.458 Y104.694 E25.29835
G1 X93.692 Y103.605 E25.39004
G1 X93.164 Y102.465 E25.47659
G1 X92.841 Y101.251 E25.56309
G1 X92.732 Y100.000 E25.64960
G1 X92.841 Y98.749 E25.73610
G1 X93.164 Y97.535 E25.82260
G1 X93.692 Y96.395 E25.90915
G1 X94.458 Y95.306 E26.00085
G1 X95.350 Y94.422 E26.08737
G1 X96.382 Y93.705 E26.17386
G1 X97.521 Y93.178 E26.26036
G1 X98.735 Y92.855 E26.34686
G1 X99.910 Y92.752 E26.42813 F1800.000
G1 X101.236 Y92.854 E26.51972
G1 X102.451 Y93.178 E26.60630
G1 X103.591 Y93.706 E26.69285
G1 X104.680 Y94.472 E26.78455
G1 X105.564 Y95.364 E26.87107
G1 X106.281 Y96.395 E26.95754
G1 X106.779 Y97.465 E27.03883
G1 X107.131 Y98.748 E27.13046
G1 X107.240 Y100.000 E27.21703
G1 X107.131 Y101.252 E27.30360
G1 X106.779 Y102.535 E27.39522
G1 X106.281 Y103.605 E27.47651
G1 X105.564 Y104.636 E27.56299
G1 X105.081 Y105.124 E27.61031
G1 X105.158 Y105.654 F7800.000
G1 X105.940 Y106.089 F7800.000
G1 X105.481 Y106.548 E27.66331 F3600.000
G1 X104.265 Y107.400 E27.78449
G1 X102.910 Y108.033 E27.90659
G1 X101.470 Y108.418 E28.02820
G1 X99.986 Y108.548 E28.14984
G1 X98.502 Y108.418 E28.27147
G1 X97.063 Y108.033 E28.39310
G1 X95.712 Y107.403 E28.51474
G1 X94.492 Y106.548 E28.63637
G1 X93.438 Y105.495 E28.75801
G1 X92.586 Y104.279 E28.87919
G1 X91.954 Y102.923 E29.00129
G1 X91.568 Y101.484 E29.12290
G1 X91.438 Y100.000 E29.24454
G1 X91.568 Y98.516 E29.36617
G1 X91.954 Y97.076 E29.48781
G1 X92.583 Y95.726 E29.60944
G1 X93.438 Y94.505 E29.73108
G1 X94.492 Y93.452 E29.85271
G1 X95.712 Y92.597 E29.97435
G1 X97.063 Y91.967 E30.09598
G1 X98.502 Y91.582 E30.21761
G1 X99.986 Y91.452 E30.33925
G1 X101.465 Y91.581 E30.46043
G1 X102.910 Y91.968 E30.58253 F3600.000
G1 X104.260 Y92.597 E30.70414
G1 X105.481 Y93.452 E30.82578
G1 X106.534 Y94.505 E30.94741
G1 X107.389 Y95.726 E31.06905
G1 X108.019 Y97.076 E31.19068
G1 X108.404 Y98.516 E31.31232
G1 X108.534 Y100.000 E31.43395
G1 X108.404 Y101.484 E31.55559
G1 X108.019 Y102.924 E31.67722
G1 X107.389 Y104.274 E31.79885
G1 X106.534 Y105.495 E31.92049
G1 X105.993 Y106.036 E31.98301
G1 X106.260 Y106.409 F7800.000
G1 X105.773 Y106.896 E32.03045 F1800.000
G1 X104.492 Y107.793 E32.13813
G1 X103.065 Y108.459 E32.24660
G1 X101.549 Y108.866 E32.35468
G1 X99.986 Y109.002 E32.46275
G1 X98.423 Y108.866 E32.57083
G1 X96.907 Y108.459 E32.67891
G1 X95.485 Y107.796 E32.78699
G1 X94.200 Y106.896 E32.89507
G1 X93.090 Y105.787 E33.00315
G1 X92.193 Y104.506 E33.11084
G1 X91.527 Y103.079 E33.21931
G1 X91.121 Y101.563 E33.32738
G1 X90.984 Y100.000 E33.43546
G1 X91.121 Y98.437 E33.54354
G1 X91.527 Y96.921 E33.65161
G1 X92.190 Y95.499 E33.75969
G1 X93.090 Y94.213 E33.86777
G1 X94.200 Y93.104 E33.97585
G1 X95.485 Y92.204 E34.08393
G1 X96.907 Y91.541 E34.19201
G1 X98.423 Y91.134 E34.30009
G1 X99.986 Y90.998 E34.40817
G1 X101.544 Y91.134 E34.51585
G1 X103.065 Y91.541 E34.62432 F1800.000
G1 X104.487 Y92.204 E34.73240
G1 X105.773 Y93.104 E34.84047
G1 X106.882 Y94.213 E34.94855
G1 X107.782 Y95.499 E35.05663
G1 X108.446 Y96.921 E35.16471
G1 X108.852 Y98.437 E35.27279
G1 X108.988 Y100.000 E35.38087
G1 X108.852 Y101.563 E35.48895
G1 X108.446 Y103.079 E35.59703
G1 X107.782 Y104.501 E35.70510
G1 X106.882 Y105.787 E35.81318
G1 X106.313 Y106.356 E35.86866
G1 X105.777 Y106.280 F7800.000
G1 X105.527 Y105.911 F7800.000
G1 X106.211 Y105.223 E36.04090 F1200.000
G1 X106.337 Y105.073 E36.07566
G1 X106.530 Y104.771 F7800.000
G1 X107.024 Y104.063 E36.22891 F1200.000
G1 X107.118 Y103.900 E36.26233
G1 X107.106 Y103.893 F7800.000
G1 X107.531 Y102.983 E36.34435 F1200.000
G1 X107.543 Y102.987 F7800.000
G1 X107.620 Y102.779 E36.38384 F1200.000
G1 X108.025 Y101.287 E36.65827
G1 X108.003 Y101.281 F7800.000
G1 X108.114 Y100.000 E36.76321 F1200.000
G1 X108.003 Y98.719 E36.86818
G1 X108.025 Y98.713 F7800.000
G1 X107.620 Y97.221 E37.14256 F1200.000
G1 X107.543 Y97.013 E37.18204
G1 X107.531 Y97.017 F7800.000
G1 X107.106 Y96.107 E37.26407 F1200.000
G1 X107.118 Y96.100 F7800.000
G1 X107.024 Y95.937 E37.29749 F1200.000
G1 X106.531 Y95.229 E37.45067
G1 X106.337 Y94.927 F7800.000
G1 X106.211 Y94.777 E37.48542 F1200.000
G1 X105.527 Y94.089 E37.65767
G1 X105.364 Y93.906 F7800.000
G1 X105.209 Y93.776 E37.69357 F1200.000
G1 X104.050 Y92.962 E37.94506
G1 X103.889 Y92.869 E37.97797
G1 X103.882 Y92.882 F7800.000
G1 X102.762 Y92.362 E38.07876 F1200.000
G1 X101.346 Y91.982 E38.19847
G1 X101.345 Y91.990 F7800.000
G1 X99.986 Y91.878 E38.44052 F1200.000
G1 X99.740 Y91.879 E38.48422
G1 X99.740 Y91.893 F7800.000
G1 X98.575 Y91.996 E38.57971 F1200.000
G1 X97.239 Y92.353 E38.69260
G1 X96.093 Y92.880 E38.79558
G1 X96.086 Y92.868 F7800.000
G1 X95.923 Y92.962 E38.82900 F1200.000
G1 X95.215 Y93.456 E38.98227
G1 X94.913 Y93.650 F7800.000
G1 X94.763 Y93.775 E39.01702 F1200.000
G1 X94.075 Y94.459 E39.18928
G1 X93.892 Y94.622 F7800.000
G1 X93.762 Y94.777 E39.22518 F1200.000
G1 X92.948 Y95.937 E39.47667
G1 X92.855 Y96.097 E39.50957
G1 X92.868 Y96.104 F7800.000
G1 X92.348 Y97.224 E39.61037 F1200.000
G1 X91.983 Y98.583 E39.72524
G1 X91.858 Y100.000 E39.84134
G1 X91.983 Y101.417 E39.95744
G1 X92.348 Y102.776 E40.07231
G1 X92.870 Y103.900 E40.17354
G1 X92.858 Y103.907 F7800.000
G1 X92.951 Y104.068 E40.20646 F1200.000
G1 X93.762 Y105.223 E40.45699
G1 X93.892 Y105.378 E40.49289
G1 X94.075 Y105.541 F7800.000
G1 X94.763 Y106.225 E40.66515 F1200.000
G1 X94.913 Y106.350 E40.69991
G1 X95.215 Y106.544 F7800.000
G1 X95.923 Y107.038 E40.85309 F1200.000
G1 X96.086 Y107.132 E40.88651
G1 X96.093 Y107.120 F7800.000
G1 X97.004 Y107.544 E40.96854 F1200.000
G1 X96.999 Y107.557 F7800.000
G1 X97.208 Y107.634 E41.00802 F1200.000
G1 X98.699 Y108.038 E41.28239
G1 X98.705 Y108.016 F7800.000
G1 X99.986 Y108.128 E41.38736 F1200.000
G1 X101.397 Y108.004 E41.50302
G1 X102.762 Y107.638 E41.61834
G1 X103.887 Y107.116 E41.71956
G1 X103.893 Y107.128 F7800.000
G1 X104.054 Y107.035 E41.75249 F1200.000
G1 X105.209 Y106.224 E42.00302
G1 X105.364 Y106.094 E42.03892
G1 Z1.300 F7800.000
G1 X105.341 Y105.504 F7800.000
G1 X104.992 Y105.859 E42.07951 F3600.000
G1 X103.806 Y106.695 E42.19800
G1 X102.596 Y107.253 E42.30678
G1 X101.311 Y107.594 E42.41530
G1 X99.986 Y107.708 E42.52383
G1 X98.662 Y107.594 E42.63236
G1 X97.390 Y107.256 E42.73975
G1 X97.224 Y107.188 E42.75441
G1 X96.168 Y106.695 E42.84952
G1 X95.076 Y105.940 E42.95791
G1 X94.128 Y105.006 E43.06659
G1 X93.291 Y103.820 E43.18507
G1 X92.733 Y102.609 E43.29385
G1 X92.392 Y101.324 E43.40238
G1 X92.278 Y100.000 E43.51091
G1 X92.392 Y98.676 E43.61943
G1 X92.733 Y97.391 E43.72796
G1 X93.291 Y96.180 E43.83674
G1 X94.128 Y94.994 E43.95522
G1 X95.076 Y94.060 E44.06391
G1 X96.169 Y93.304 E44.17242
G1 X97.377 Y92.747 E44.28094
G1 X98.661 Y92.406 E44.38944
G1 X99.811 Y92.306 E44.48364
G1 X99.989 Y92.292 E44.49821 F3600.000
G1 X101.311 Y92.406 E44.60651
G1 X102.596 Y92.747 E44.71504
G1 X103.806 Y93.305 E44.82382
G1 X104.992 Y94.141 E44.94230
G1 X105.926 Y95.090 E45.05098
G1 X106.681 Y96.182 E45.15937
G1 X107.174 Y97.238 E45.25448
G1 X107.243 Y97.404 E45.26914
G1 X107.580 Y98.676 E45.37653
G1 X107.695 Y100.000 E45.48506
G1 X107.580 Y101.324 E45.59359
G1 X107.243 Y102.596 E45.70097
G1 X106.681 Y103.818 E45.81073
G1 X105.926 Y104.910 E45.91912
G1 X105.394 Y105.451 E45.98109
G1 X105.019 Y105.187 F7800.000
G1 X104.698 Y105.512 E46.01254 F1800.000
G1 X103.579 Y106.301 E46.10687
G1 X102.442 Y106.825 E46.19311
G1 X101.233 Y107.146 E46.27927
G1 X99.986 Y107.254 E46.36544
G1 X98.740 Y107.146 E46.45160
G1 X97.535 Y106.827 E46.53743
G1 X97.406 Y106.773 E46.54704
G1 X96.394 Y106.301 E46.62397
G1 X95.366 Y105.590 E46.71008
G1 X94.474 Y104.712 E46.79628
G1 X93.685 Y103.593 E46.89061
G1 X93.161 Y102.456 E46.97685
G1 X92.840 Y101.246 E47.06301
G1 X92.732 Y100.000 E47.14918
G1 X92.840 Y98.754 E47.23534
G1 X93.161 Y97.544 E47.32151
G1 X93.685 Y96.407 E47.40774
G1 X94.474 Y95.288 E47.50207
G1 X95.366 Y94.410 E47.58827
G1 X96.395 Y93.698 E47.67443
G1 X97.531 Y93.175 E47.76058
G1 X98.740 Y92.854 E47.84674
G1 X99.848 Y92.757 E47.92340
G1 X99.987 Y92.746 E47.93298 F1800.000
G1 X101.233 Y92.854 E48.01908
G1 X102.442 Y93.175 E48.10524
G1 X103.579 Y93.699 E48.19148
G1 X104.698 Y94.488 E48.28581
G1 X105.576 Y95.380 E48.37201
G1 X106.287 Y96.408 E48.45813
G1 X106.759 Y97.420 E48.53506
G1 X106.813 Y97.549 E48.54467
G1 X107.132 Y98.754 E48.63049
G1 X107.240 Y100.000 E48.71665
G1 X107.132 Y101.246 E48.80282
G1 X106.813 Y102.451 E48.88864
G1 X106.287 Y103.592 E48.97517
G1 X105.576 Y104.620 E49.06129
G1 X105.071 Y105.133 E49.11087
G1 X105.140 Y105.627 F7800.000
G1 X105.930 Y106.099 F7800.000
G1 X105.481 Y106.548 E49.16278 F3600.000
G1 X104.319 Y107.361 E49.27853
G1 X102.907 Y108.033 E49.40619
G1 X101.470 Y108.418 E49.52760
G1 X99.986 Y108.548 E49.64923
G1 X98.502 Y108.418 E49.77087
G1 X97.063 Y108.033 E49.89250
G1 X95.712 Y107.403 E50.01413
G1 X94.492 Y106.548 E50.13577
G1 X93.438 Y105.495 E50.25740
G1 X92.583 Y104.274 E50.37904
G1 X91.954 Y102.924 E50.50067
G1 X91.568 Y101.484 E50.62231
G1 X91.438 Y100.000 E50.74394
G1 X91.568 Y98.516 E50.86557
G1 X91.954 Y97.076 E50.98721
G1 X92.583 Y95.726 E51.10884
G1 X93.438 Y94.505 E51.23048
G1 X94.492 Y93.452 E51.35211
G1 X95.712 Y92.597 E51.47375
G1 X97.063 Y91.967 E51.59538
G1 X98.502 Y91.582 E51.71702
